img/svg/16/net/offbyone.svg

<svg xmlns="http://www.w3.org/2000/svg" viewBox="0 0 16 16" enable-background="new 0 0 16 16"><g fill="#ccc"><path d="M6 2h1v2h-1zM14 5h-1v-5h-1v1h-2v1h2v1h-2v2h-1v-5h-9v11h3v4h-3v1h8v-6h2v-1h-1v-1h-1v-2h1v2h1v-2h1v2h-1v1h1v1h-1v1h1v3h-2v1h2v1h5v-13h-2v2zm-7 7v3h-1v-3h-1v3h-1v-4h3v1zm1-10v3h-3v2h2v3h-3v-5h1v-4h3v1zM5 8h1v1h-1zM9 12h1v1h-1zM1 12h1v2h-1zM14 1h2v1h-2z"/></g></svg>

<svg xmlns="http://www.w3.org/2000/svg" viewBox="0 0 16 16"><path fill="#ccc" d="M6 2h1v2H6zm8 3h-1V0h-1v1h-2v1h2v1h-2v2H9V0H0v11h3v4H0v1h8v-6h2V9H9V8H8V6h1v2h1V6h1v2h-1v1h1v1h-1v1h1v3H9v1h2v1h5V3h-2v2zm-7 7v3H6v-3H5v3H4v-4h3v1zM8 2v3H5v2h2v3H4V5h1V1h3v1zM5 8h1v1H5zm4 4h1v1H9zm-8 0h1v2H1zM14 1h2v1h-2z"/></svg>
